X: 305753
M: 6/8
L: 1/8
K: C
E/F/ |\
(e/f/) |\
gag gag | (g<a)d d2 (de) | fgf fgf | (d<e)c c2 (e/f/) |\
gag gag | (g>a)d d2d/e/ | fed a2g | c3- "^D.C."c2 |]
E/F/ |\


